icons/tabbed-view-16.svg

<svg xmlns="http://www.w3.org/2000/svg" viewBox="0 0 16 16"><path d="M1 8h3v1H1zm7-6V0H2v2H0v1h3V1h4v2h9V2zM6 9h9V8H6zm-5 6h3v-1H1zm5 0h9v-1H6z"/><path fill="none" d="M0 0h16v16H0z"/></svg>

<svg id="icons" xmlns="http://www.w3.org/2000/svg" viewBox="0 0 16 16">
  <path d="M1,8H4V9H1ZM8,2V0H2V2H0V3H3V1H7V3h9V2ZM6,9h9V8H6ZM1,15H4V14H1Zm5,0h9V14H6Z"/>
<path fill="none" d="M0 0h16v16H0z"/></svg>
